svg/dice_d6.svg

<svg xmlns="http://www.w3.org/2000/svg" viewBox="0 0 24 24"><path d="M13.05 13.5c0 .77-.44 1.33-1.05 1.33s-1.15-.56-1.15-1.33l-.02-.72s.38-.78 1.12-.68c.61 0 1.1.63 1.1 1.4M21 5v14c0 1.11-.89 2-2 2H5a2 2 0 0 1-2-2V5c0-1.1.9-2 2-2h14a2 2 0 0 1 2 2m-6.45 8.41c-.05-1.96-1.36-2.54-2.02-2.54-1.12 0-1.67.66-1.67.66s.03-2.03 2.53-2v-1.2s-4.06-.39-4.09 4.33c-.03 4.2 3.47 3.34 3.47 3.34s1.84-.53 1.78-2.59"/></svg>

<?xml version="1.0" encoding="UTF-8"?><!DOCTYPE svg PUBLIC "-//W3C//DTD SVG 1.1//EN" "http://www.w3.org/Graphics/SVG/1.1/DTD/svg11.dtd"><svg xmlns="http://www.w3.org/2000/svg" xmlns:xlink="http://www.w3.org/1999/xlink" version="1.1" id="mdi-dice-d6" width="24" height="24" viewBox="0 0 24 24"><path d="M13.05 13.5C13.05 14.27 12.61 14.83 12 14.83S10.85 14.27 10.85 13.5L10.83 12.78C10.83 12.78 11.21 12 11.95 12.1C12.56 12.1 13.05 12.73 13.05 13.5M21 5V19C21 20.11 20.11 21 19 21H5C3.9 21 3 20.11 3 19V5C3 3.9 3.9 3 5 3H19C20.11 3 21 3.9 21 5M14.55 13.41C14.5 11.45 13.19 10.87 12.53 10.87C11.41 10.87 10.86 11.53 10.86 11.53S10.89 9.5 13.39 9.53V8.33C13.39 8.33 9.33 7.94 9.3 12.66C9.27 16.86 12.77 16 12.77 16S14.61 15.47 14.55 13.41Z" /></svg>
